svg/24/star.svg

<svg width="24" height="24" viewBox="0 0 24 24" fill="currentColor" xmlns="http://www.w3.org/2000/svg"><path fill-rule="evenodd" clip-rule="evenodd" d="M8.68416 7.46308L3.27477 8.24911C2.45455 8.36829 2.12704 9.37627 2.72056 9.9548L6.63483 13.7703L5.7108 19.1578C5.57069 19.9747 6.42812 20.5977 7.16175 20.212L12.0001 17.6683L16.8384 20.212C17.572 20.5977 18.4294 19.9747 18.2893 19.1578L17.3653 13.7703L21.2795 9.9548C21.8731 9.37627 21.5455 8.36829 20.7253 8.24911L15.3159 7.46308L12.8968 2.56134C12.53 1.81809 11.4701 1.8181 11.1033 2.56134L8.68416 7.46308ZM14.3198 8.83409L12.0001 4.13368L9.68026 8.83409L4.49305 9.58784L8.24655 13.2466L7.36047 18.4128L12.0001 15.9737L16.6396 18.4128L15.7535 13.2466L19.507 9.58784L14.3198 8.83409Z"/></svg>

<svg xmlns="http://www.w3.org/2000/svg" width="24" height="24" fill="currentColor" viewBox="0 0 24 24">
  <path fill-rule="evenodd" d="m8.684 7.463-5.41.786a1 1 0 0 0-.553 1.706l3.914 3.815-.924 5.388a1 1 0 0 0 1.45 1.054l4.84-2.544 4.837 2.544a1 1 0 0 0 1.451-1.054l-.924-5.388 3.915-3.815a1 1 0 0 0-.555-1.706l-5.41-.786-2.418-4.902a1 1 0 0 0-1.794 0L8.684 7.463Zm5.636 1.371L12 4.134l-2.32 4.7-5.187.754 3.754 3.659-.887 5.166 4.64-2.44 4.64 2.44-.886-5.166 3.753-3.66-5.187-.753Z" clip-rule="evenodd"/>
</svg>
